X: 2
T: Kilnamona
R: barndance
M: 4/4
L: 1/8
K: Gmaj
|: A/B>c |d>GB>d G>AB>c | d2 c2 A2 B2 | c2 A2 e2- e>d | e2 d>c B>G (3ABc |
d>GB>d G>AB>c | d2 c2 A2 B2 | C2 A2 e2 d2 | G2- G2- G3/ :|
|: f/g>a |b2 g>b b>ag>b | a2 f>a a>ge>f | (3gag f>g e>gd>g | e>gd>G B>A (3Bcd |
b2 g>b b>a (3gab | (3aba f>a a>ge>f | (3gag f>g (3efg d2 | g2- g2- g3/ :|


Tune 163	Setting 163

